src/assets/icons/icons/icon_location-marker.svg

<?xml version="1.0" encoding="utf-8"?>
<!-- Generator: Adobe Illustrator 28.1.0, SVG Export Plug-In . SVG Version: 6.00 Build 0)  -->
<svg version="1.1" id="Layer_1" xmlns="http://www.w3.org/2000/svg" xmlns:xlink="http://www.w3.org/1999/xlink" x="0px" y="0px"
	 viewBox="0 0 72 72" style="enable-background:new 0 0 72 72;" xml:space="preserve">
<g>
	<path d="M34.66,56.68C35.08,56.89,35.54,57,36,57s0.92-0.11,1.34-0.32C38.14,56.28,57,46.63,57,27c0-11.58-9.42-21-21-21
		s-21,9.42-21,21C15,46.63,33.86,56.28,34.66,56.68z M36,12c8.27,0,15,6.73,15,15c0,13.15-11.09,21.14-15,23.54
		C32.09,48.13,21,40.14,21,27C21,18.73,27.73,12,36,12z"/>
	<path d="M47,27c0-6.07-4.93-11-11-11s-11,4.93-11,11s4.93,11,11,11S47,33.07,47,27z M29,27c0-3.86,3.14-7,7-7s7,3.14,7,7
		s-3.14,7-7,7S29,30.86,29,27z"/>
</g>
</svg>

<?xml version="1.0" encoding="utf-8"?>
<!-- Generator: Adobe Illustrator 28.1.0, SVG Export Plug-In . SVG Version: 6.00 Build 0)  -->
<svg version="1.1" id="Layer_1" xmlns="http://www.w3.org/2000/svg" xmlns:xlink="http://www.w3.org/1999/xlink" x="0px" y="0px"
	 viewBox="0 0 72 72" style="enable-background:new 0 0 72 72;" xml:space="preserve">
<g>
	<path d="M36,6c-11.58,0-21,9.42-21,21c0,19.63,18.86,29.28,19.66,29.68C35.08,56.89,35.54,57,36,57s0.92-0.11,1.34-0.32
		C38.14,56.28,57,46.63,57,27C57,15.42,47.58,6,36,6z M36,50.54C32.09,48.13,21,40.14,21,27c0-8.27,6.73-15,15-15
		c8.27,0,15,6.73,15,15C51,40.15,39.91,48.14,36,50.54z"/>
	<path d="M36,16c-6.07,0-11,4.93-11,11s4.93,11,11,11s11-4.93,11-11S42.07,16,36,16z M36,34c-3.86,0-7-3.14-7-7s3.14-7,7-7
		c3.86,0,7,3.14,7,7S39.86,34,36,34z"/>
</g>
</svg>
